src/2-landmarks/medical-checkup--examine.svg

<svg width="1300" height="1000" viewBox="0 0 1300 1000" fill="none" xmlns="http://www.w3.org/2000/svg"><path d="M0 900h1300v100H0V900Zm849.426-430.838c0-1.662-5.902-57.127-23.43-93.162-15.049-29.175-39.06-33.545-77.179-33.979-36.975-.426-67.042 5.516-82.944 33.197-15.441 36.104-30.279 89.186-30.279 89.186L584 502.5l-23.602 6.332c-9.235 2.478-14.204 12.493-10.591 21.345a11.915 11.915 0 0 0 11.631 7.397L602.5 535.5l79-43L667.996 718l1.5 156-15.598 6.406a20.001 20.001 0 0 0-12.402 18.501V900h93.5l-1.5-18a9.97 9.97 0 0 0 4.439-8.408L736.496 746l9.5-125 9 125v128a10 10 0 0 0 4 8l-1.5 18H849.5c0-7.632-4.401-14.58-11.301-17.842l-16.203-7.658 2-156.5-6.5-118.5 5.869 22.986a.917.917 0 0 0 .642.657c12.056 3.376 23.881-6.04 23.292-18.546l-1.519-32.227s3.646-59.37 3.646-103.208Z" fill="#000"/><path d="M842.43 472.47s-4.44-56.683-20.98-91.955c-14.201-28.557-36.989-30.07-72.96-30.495-34.892-.416-62.264 3.4-77.27 30.495C656.648 415.854 643 469.5 643 469.5L587 509l-27.066 8.935a6.293 6.293 0 0 0 2.424 12.251l37.424-2.693L680 483.5l12.789-64.418a1.32 1.32 0 0 1 2.609.352L690.5 487.5l-3 30.5-3 55.855-9.5 143.153 2.5 161.007-21.216 9.112a10.001 10.001 0 0 0-6.052 9.022l-.064 3.851H728l-2.09-24.01a4.965 4.965 0 0 0 4.994-5.049l-2.159-126.821 13.38-145.808a4.502 4.502 0 0 1 8.973.045l11.912 145.778-.725 127.575a4.285 4.285 0 0 0 4.315 4.31L764.609 900H841.5c0-5.192-2.968-9.927-7.641-12.189l-20.179-9.771 2.16-161.02L807 518l-3-30-5.309-67.565a2.248 2.248 0 0 1 4.471-.464l6.348 49.119L818 573.493l11.218 42.712a.57.57 0 0 0 .552.425c6.612 0 11.839-5.604 11.379-12.2l-2.159-30.937 3.44-101.023Z" fill="#fff"/><path d="M759.42 336.086c-3.769 1.408-10.806 1.91-12.648 1.914 0 0-8.301-.069-13.136-1.914-5.448-2.079-8.483-4.109-12.162-8.575-2.489-3.022-4.438-8.223-5.321-10.853-.362-1.079-.612-2.188-.802-3.31l-4.093-24.154s-.495-3.492-.486-5.742c.019-5.351.745-8.493 2.918-13.398 2.233-5.038 4.185-7.735 8.271-11.484 4.355-3.996 7.495-5.742 13.135-7.625 4.379-1.462 7.051-1.907 11.676-1.945 4.962.167 6.81.478 11.547 1.945 4.741 1.577 9.581 4.373 13.263 7.625 3.683 3.252 6.261 7.101 8.271 11.484 2.01 4.383 2.917 8.615 2.918 13.398 0 1.803-.199 3.959-.486 5.742l-4.864 23.833a24.114 24.114 0 0 1-1.013 3.617c-1.04 2.793-3.202 8.177-5.312 10.829-2.925 3.676-7.167 6.929-11.676 8.613Z" fill="#000"/><path d="M756.961 329.387c-3.036 1.186-8.705 1.609-10.19 1.613 0 0-6.686-.058-10.581-1.613-4.388-1.752-6.833-3.462-9.797-7.226-1.948-2.474-3.485-6.68-4.223-8.951-.338-1.039-.567-2.105-.742-3.184l-3.265-20.155s-.398-2.943-.391-4.839c.015-4.509.6-7.156 2.351-11.29 1.798-4.246 3.371-6.518 6.662-9.677 3.509-3.368 6.037-4.839 10.581-6.426 3.528-1.232 5.68-1.607 9.405-1.639 3.998.141 5.487.403 9.303 1.639 3.819 1.329 7.717 3.685 10.684 6.426 2.967 2.74 5.043 5.983 6.662 9.677 1.619 3.694 2.35 7.26 2.351 11.29 0 1.52-.161 3.337-.391 4.839l-3.875 19.862a23.685 23.685 0 0 1-.937 3.486c-.864 2.407-2.553 6.742-4.202 8.91-2.356 3.098-5.774 5.839-9.405 7.258Zm-28.899 332.434c-3.589-6.218-1.459-14.168 4.759-17.758l126.44-73c6.217-3.59 14.168-1.46 17.758 4.758s1.459 14.169-4.758 17.758l-126.44 73c-6.218 3.59-14.169 1.46-17.759-4.758ZM340 679c0-7.179 5.82-13 13-13h360c7.18 0 13 5.821 13 13 0 7.18-5.82 13-13 13H353c-7.18 0-13-5.82-13-13Z" fill="#fff"/><path fill-rule="evenodd" clip-rule="evenodd" d="M729.32 638c-7.932 4.58-11.54 13.772-9.392 22.233A19.967 19.967 0 0 0 713 659H353c-11.046 0-20 8.955-20 20 0 11.046 8.954 20 20 20v201h7V699h353c11.046 0 20-8.954 20-20 0-1.697-.211-3.344-.609-4.918 5.382 1.985 11.574 1.652 16.93-1.441l126.439-73c9.566-5.523 12.844-17.754 7.321-27.32-5.523-9.566-17.755-12.844-27.321-7.321l-126.44 73Zm3.501 6.063c-6.218 3.59-8.348 11.54-4.759 17.758 3.59 6.218 11.541 8.348 17.759 4.758l126.44-73c6.217-3.589 8.348-11.54 4.758-17.758-3.59-6.218-11.541-8.348-17.758-4.758l-126.44 73ZM353 666c-7.18 0-13 5.821-13 13 0 7.18 5.82 13 13 13h360c7.18 0 13-5.82 13-13 0-7.179-5.82-13-13-13H353Z" fill="#000"/></svg>

<svg width="1300" height="1000" viewBox="0 0 1300 1000" fill="none" xmlns="http://www.w3.org/2000/svg">
<path d="M0 900H1300V1000H0V900Z" fill="black"/>
<path d="M849.426 469.162C849.426 467.5 843.524 412.035 825.996 376C810.947 346.825 786.936 342.455 748.817 342.021C711.842 341.595 681.775 347.537 665.873 375.218C650.432 411.322 635.594 464.404 635.594 464.404L584 502.5L560.398 508.832C551.163 511.31 546.194 521.325 549.807 530.177C551.72 534.863 556.384 537.829 561.438 537.574L602.5 535.5L681.5 492.5L667.996 718L669.496 874L653.898 880.406C646.395 883.488 641.496 890.796 641.496 898.907V900H734.996L733.496 882C736.303 880.129 737.973 876.965 737.935 873.592L736.496 746L745.996 621L754.996 746V874C754.996 877.148 756.478 880.111 758.996 882L757.496 900H849.5C849.5 892.368 845.099 885.42 838.199 882.158L821.996 874.5L823.996 718L817.496 599.5L823.365 622.486C823.446 622.804 823.691 623.055 824.007 623.143C836.063 626.519 847.888 617.103 847.299 604.597L845.78 572.37C845.78 572.37 849.426 513 849.426 469.162Z" fill="black"/>
<path d="M842.43 472.47C842.43 472.47 837.99 415.787 821.45 380.515C807.249 351.958 784.461 350.445 748.49 350.02C713.598 349.604 686.226 353.42 671.22 380.515C656.648 415.854 643 469.5 643 469.5L587 509L559.934 517.935C557.157 518.851 555.378 521.561 555.639 524.473C555.946 527.891 558.935 530.433 562.358 530.186L599.782 527.493L680 483.5L692.789 419.082C692.912 418.465 693.453 418.02 694.083 418.02C694.848 418.02 695.453 418.67 695.398 419.434L690.5 487.5L687.5 518L684.5 573.855L675 717.008L677.5 878.015L656.284 887.127C652.667 888.681 650.298 892.212 650.232 896.149L650.168 900H728L725.91 875.99C728.697 876.007 730.951 873.727 730.904 870.941L728.745 744.12L742.125 598.312C742.337 595.994 744.281 594.22 746.609 594.22C748.954 594.22 750.907 596.02 751.098 598.357L763.01 744.135L762.285 871.71C762.271 874.098 764.212 876.037 766.6 876.02L764.609 900H841.5C841.5 894.808 838.532 890.073 833.859 887.811L813.68 878.04L815.84 717.02L807 518L804 488L798.691 420.435C798.588 419.124 799.628 418.005 800.943 418.011C802.069 418.016 803.018 418.854 803.162 419.971L809.51 469.09L818 573.493L829.218 616.205C829.284 616.456 829.511 616.63 829.77 616.63C836.382 616.63 841.609 611.026 841.149 604.43L838.99 573.493L842.43 472.47Z" fill="white"/>
<path d="M759.42 336.086C755.651 337.494 748.614 337.996 746.772 338C746.772 338 738.471 337.931 733.636 336.086C728.188 334.007 725.153 331.977 721.474 327.511C718.985 324.489 717.036 319.288 716.153 316.658C715.791 315.579 715.541 314.47 715.351 313.348L711.258 289.194C711.258 289.194 710.763 285.702 710.772 283.452C710.791 278.101 711.517 274.959 713.69 270.054C715.923 265.016 717.875 262.319 721.961 258.57C726.316 254.574 729.456 252.828 735.096 250.945C739.475 249.483 742.147 249.038 746.772 249C751.734 249.167 753.582 249.478 758.319 250.945C763.06 252.522 767.9 255.318 771.582 258.57C775.265 261.822 777.843 265.671 779.853 270.054C781.863 274.437 782.77 278.669 782.771 283.452C782.771 285.255 782.572 287.411 782.285 289.194L777.421 313.027C777.171 314.256 776.846 315.468 776.408 316.644C775.368 319.437 773.206 324.821 771.096 327.473C768.171 331.149 763.929 334.402 759.42 336.086Z" fill="black"/>
<path d="M756.961 329.387C753.925 330.573 748.256 330.996 746.771 331C746.771 331 740.085 330.942 736.19 329.387C731.802 327.635 729.357 325.925 726.393 322.161C724.445 319.687 722.908 315.481 722.17 313.21C721.832 312.171 721.603 311.105 721.428 310.026L718.163 289.871C718.163 289.871 717.765 286.928 717.772 285.032C717.787 280.523 718.372 277.876 720.123 273.742C721.921 269.496 723.494 267.224 726.785 264.065C730.294 260.697 732.822 259.226 737.366 257.639C740.894 256.407 743.046 256.032 746.771 256C750.769 256.141 752.258 256.403 756.074 257.639C759.893 258.968 763.791 261.324 766.758 264.065C769.725 266.805 771.801 270.048 773.42 273.742C775.039 277.436 775.77 281.002 775.771 285.032C775.771 286.552 775.61 288.369 775.38 289.871L771.505 309.733C771.274 310.917 770.976 312.084 770.568 313.219C769.704 315.626 768.015 319.961 766.366 322.129C764.01 325.227 760.592 327.968 756.961 329.387Z" fill="white"/>
<path d="M728.062 661.821C724.473 655.603 726.603 647.653 732.821 644.063L859.261 571.063C865.478 567.473 873.429 569.603 877.019 575.821C880.609 582.039 878.478 589.99 872.261 593.579L745.821 666.579C739.603 670.169 731.652 668.039 728.062 661.821Z" fill="white"/>
<path d="M340 679C340 671.821 345.82 666 353 666H713C720.18 666 726 671.821 726 679C726 686.18 720.18 692 713 692H353C345.82 692 340 686.18 340 679Z" fill="white"/>
<path fill-rule="evenodd" clip-rule="evenodd" d="M729.32 638C721.388 642.58 717.78 651.772 719.928 660.233C717.769 659.436 715.435 659 713 659H353C341.954 659 333 667.955 333 679C333 690.046 341.954 699 353 699V900H360V699H713C724.046 699 733 690.046 733 679C733 677.303 732.789 675.656 732.391 674.082C737.773 676.067 743.965 675.734 749.321 672.641L875.76 599.641C885.326 594.118 888.604 581.887 883.081 572.321C877.558 562.755 865.326 559.477 855.76 565L729.32 638ZM732.821 644.063C726.603 647.653 724.473 655.603 728.062 661.821C731.652 668.039 739.603 670.169 745.821 666.579L872.261 593.579C878.478 589.99 880.609 582.039 877.019 575.821C873.429 569.603 865.478 567.473 859.261 571.063L732.821 644.063ZM353 666C345.82 666 340 671.821 340 679C340 686.18 345.82 692 353 692H713C720.18 692 726 686.18 726 679C726 671.821 720.18 666 713 666H353Z" fill="black"/>
</svg>
